assets/images/cloudmill.svg

<svg width="111" height="23" viewBox="0 0 111 23" fill="none" xmlns="http://www.w3.org/2000/svg">
<g clip-path="url(#clip0)">
<path d="M15.1998 22.8455L15.9476 21.4727V22.8455H15.1998Z" fill="#0029FF"/>
<path d="M15.9476 13.6274V15.0003L15.1998 13.6274H15.9476Z" fill="#0029FF"/>
<path d="M9.90542 20.5348C10.1458 20.2944 10.3694 20.054 10.5762 19.8135C10.9756 19.3243 11.3244 18.7959 11.6173 18.2364C11.3179 17.716 11.0761 17.1645 10.896 16.5918C10.8127 16.3131 10.7461 16.0297 10.6964 15.7431C10.6447 15.4652 10.6126 15.184 10.6003 14.9016C10.5756 14.432 10.603 13.9611 10.682 13.4976C10.76 13.5271 10.8404 13.5497 10.9224 13.5649C10.9483 13.576 10.976 13.5825 11.0042 13.5841C10.9994 13.9787 11.0299 14.373 11.0955 14.7622C11.1657 15.1595 11.2686 15.5503 11.4033 15.9307C11.8024 16.7024 12.2352 17.467 12.6487 18.2364C12.2255 19.0033 11.8216 19.7751 11.3816 20.5396C11.083 20.9252 10.761 21.2922 10.4175 21.6384C10.0546 21.9946 9.66911 22.327 9.26349 22.6337C9.11683 22.6121 8.97257 22.5736 8.82591 22.5376C8.41857 22.4446 8.01715 22.3274 7.62378 22.1865C8.15571 21.9055 8.66177 21.5781 9.13606 21.208C9.40677 21.0004 9.66376 20.7756 9.90542 20.5348Z" fill="#0029FF"/>
<path d="M11.3482 22.4124C11.3703 22.3896 11.3912 22.3655 11.4107 22.3403L11.4491 22.2706L11.7641 21.6936L12.3916 20.5419L13.649 18.2363L12.3916 15.9306L11.7641 14.7789L11.4491 14.2019L11.4107 14.1322C11.4107 14.1057 11.3986 14.0817 11.3914 14.0577L11.3626 13.9086C11.3458 13.8124 11.3289 13.7138 11.3169 13.6177H11.401H12.1512L14.666 18.2363L12.1512 22.8404H11.377H10.9539L11.2207 22.5639L11.3482 22.4124Z" fill="#0029FF"/>
<path d="M13.1681 22.8454L15.6806 18.2364L13.1681 13.6274H14.1827L15.9474 16.8636V19.6092L14.1827 22.8454H13.1681Z" fill="#0029FF"/>
<path d="M7.75609 17.1692C7.84656 15.5144 8.51148 13.9431 9.63622 12.7261C9.70437 12.8165 9.77825 12.9024 9.85741 12.9833C8.9238 14.3525 8.49853 16.0051 8.65528 17.6548C7.1091 18.7987 5.24994 19.4422 3.32743 19.4989C2.92951 19.0943 2.56074 18.6621 2.22388 18.2054C4.13048 18.4326 6.06097 18.071 7.75609 17.1692Z" fill="#0029FF"/>
<path d="M10.0979 13.1919C10.1386 13.2288 10.1838 13.2603 10.2325 13.2857C10.283 13.3097 10.3239 13.3482 10.372 13.3698C10.2034 13.8978 10.1 14.4444 10.0642 14.9975C10.0474 15.2834 10.0474 15.57 10.0642 15.8558C10.0844 16.1445 10.1205 16.4318 10.1724 16.7165C10.2159 16.9651 10.2745 17.2108 10.3479 17.4522C10.4201 17.6927 10.5042 17.9331 10.6004 18.1735C10.4489 18.3803 10.2878 18.5871 10.1195 18.7914C9.94543 18.9987 9.75917 19.1953 9.56173 19.3805C9.3213 19.5993 9.08088 19.8132 8.814 20.0224C8.54624 20.2256 8.26774 20.4142 7.97972 20.5874C7.37179 20.9574 6.72723 21.2636 6.05632 21.501C5.80387 21.3688 5.57546 21.2173 5.32061 21.0707C5.07783 20.9248 4.84418 20.7642 4.62097 20.5898C6.51358 20.2552 8.25764 19.3471 9.61703 17.9884C9.21034 16.3826 9.38052 14.685 10.0979 13.1919Z" fill="#0029FF"/>
<path d="M2.35353 15.7692C3.62326 16.0798 4.94605 16.1053 6.2268 15.8437C6.63646 14.7374 7.30893 13.7473 8.18627 12.9586C8.36123 12.8025 8.5442 12.6557 8.73444 12.5186C8.93159 12.3816 9.13114 12.2566 9.3307 12.1436C9.34869 12.1817 9.36396 12.2211 9.37638 12.2614C9.3884 12.2998 9.41485 12.3311 9.42927 12.3672C9.4437 12.4032 9.45331 12.42 9.46534 12.4465C8.16861 13.4809 7.27605 14.9376 6.94327 16.5626C5.13168 17.2064 3.16598 17.2777 1.31249 16.7669L1.11534 16.3654C1.02638 16.1755 0.930208 15.988 0.853272 15.7932L0.63208 15.2042C0.920591 15.3244 1.20429 15.4446 1.488 15.5312C1.7717 15.6177 2.06742 15.7019 2.35353 15.7692Z" fill="#0029FF"/>
<path d="M4.71727 10.1482C5.83484 9.77872 7.02544 9.68631 8.18663 9.87889C8.42706 9.91976 8.64584 9.97025 8.87185 10.0328C9.09785 10.0953 9.32385 10.177 9.54023 10.2732C9.51975 10.3081 9.49727 10.3418 9.47291 10.3742C9.45368 10.4102 9.44166 10.4487 9.42242 10.4848C9.40319 10.5208 9.39838 10.5353 9.38395 10.5593C7.771 10.1892 6.07917 10.4003 4.60668 11.1556C2.96779 10.1463 1.68122 8.65481 0.92334 6.88559L1.11568 6.49129C1.20704 6.30376 1.296 6.11382 1.39698 5.9311L1.72156 5.39014C1.80571 5.69067 1.89707 5.98159 1.99805 6.26048C2.09903 6.53937 2.23847 6.82308 2.35388 7.08755C2.90773 8.26871 3.71458 9.3136 4.71727 10.1482Z" fill="#0029FF"/>
<path d="M4.63538 12.1707C5.9831 11.2026 7.62777 10.738 9.28282 10.858C9.25496 10.9624 9.23328 11.0684 9.21791 11.1753C7.5673 11.3119 6.01502 12.0162 4.82532 13.1685C2.96794 12.6774 1.30361 11.6335 0.0528564 10.1752C0.118778 9.60739 0.224831 9.04499 0.370219 8.49219C1.38233 10.1257 2.87095 11.4095 4.63538 12.1707Z" fill="#0029FF"/>
<path d="M9.21073 11.5117C9.21073 11.567 9.21073 11.6247 9.21073 11.6776C9.22227 11.7315 9.2303 11.7861 9.23477 11.8411C8.17515 12.2425 7.23346 12.9039 6.49632 13.7645C6.32968 13.9557 6.17319 14.1556 6.02749 14.3632C5.88563 14.5699 5.74859 14.7863 5.62117 15.0147C5.36151 15.0292 5.09463 15.034 4.82295 15.0147C4.55127 14.9955 4.29401 14.9763 4.02233 14.9426C2.65507 14.7509 1.34398 14.2715 0.175511 13.5361C0.127426 13.2548 0.0865535 12.9735 0.0480853 12.6922C0.00961705 12.4109 0.0168298 12.1513 0 11.8675C1.44562 13.1305 3.24404 13.9194 5.15233 14.1276C6.15841 12.8087 7.59412 11.8833 9.21073 11.5117Z" fill="#0029FF"/>
<path d="M6.58766 6.60693C8.18541 7.05174 9.57651 8.04294 10.5186 9.4079C10.4713 9.43595 10.4214 9.4593 10.3696 9.47762C10.3239 9.50407 10.2806 9.54013 10.2301 9.56417C9.09507 8.35682 7.57346 7.58454 5.92889 7.3811C5.15085 5.62487 4.92772 3.6729 5.28936 1.78638C5.52978 1.63972 5.77021 1.48826 6.02266 1.35362C6.2751 1.21898 6.53236 1.11319 6.78962 0.980957C6.14671 2.79115 6.0762 4.7553 6.58766 6.60693Z" fill="#0029FF"/>
<path d="M9.96564 9.76154C9.92717 9.80241 9.88389 9.83607 9.84302 9.87214C9.80215 9.9082 9.77089 9.95869 9.73242 9.99716C8.75006 9.42644 7.64143 9.10839 6.5059 9.07152C6.26548 9.07152 5.9962 9.07152 5.74616 9.07152C5.49611 9.07152 5.24126 9.1196 4.9816 9.16047C4.80849 8.96813 4.6402 8.76377 4.47671 8.54739C4.31562 8.331 4.17377 8.10981 4.03192 7.87419C3.32797 6.68965 2.88226 5.36973 2.724 4.00092C2.91153 3.78935 3.10147 3.58018 3.29621 3.37341C3.49096 3.16664 3.70975 2.98632 3.91892 2.79639C3.84327 4.71466 4.35493 6.61033 5.38552 8.23002C7.04413 8.19066 8.66431 8.73243 9.96564 9.76154Z" fill="#0029FF"/>
<path d="M15.9476 3.23584V5.98151L15.1998 4.60867L15.9476 3.23584Z" fill="#0029FF"/>
<path d="M9.13616 1.63714C8.98469 1.9521 8.85245 2.26705 8.73705 2.5772C8.62652 2.89263 8.53262 3.21364 8.45575 3.53891C8.30595 4.15229 8.22531 4.78051 8.21532 5.41183C8.71719 5.74149 9.17804 6.1297 9.58816 6.56828C9.78503 6.77805 9.96889 6.99966 10.1387 7.23186C10.3046 7.46341 10.4571 7.70423 10.5955 7.95314C10.711 8.15985 10.8138 8.37343 10.9033 8.59267C10.9951 8.80702 11.0753 9.02612 11.1437 9.24903L11.0235 9.26827C10.9839 9.26883 10.9447 9.27699 10.9081 9.29231L10.8191 9.30433C10.0997 7.80803 8.87298 6.61535 7.357 5.93836C7.12474 4.03291 7.48487 2.10215 8.38843 0.40856L8.8236 0.297964C9.02704 0.245265 9.23335 0.204325 9.4415 0.175346L10.0642 0.0839844C9.88388 0.338836 9.71558 0.596092 9.55931 0.853348C9.40412 1.10673 9.26286 1.36838 9.13616 1.63714Z" fill="#0029FF"/>
<path d="M13.1681 4.60897L15.6806 0H15.9474V1.37283L14.1827 4.60897L15.9474 7.8451V9.21794H15.6806L13.1681 4.60897Z" fill="#0029FF"/>
<path d="M14.6659 9.21794H13.6489L11.134 4.62339C11.9731 3.05822 12.8098 1.54354 13.6489 0H14.6659L12.151 4.60897L14.6659 9.21794Z" fill="#0029FF"/>
<path d="M10.6387 3.4958C10.4375 3.89521 10.2663 4.30909 10.1266 4.73399C10.3935 5.06697 10.6347 5.41981 10.8479 5.78946C11.0521 6.15079 11.2289 6.52691 11.3768 6.91465C11.7808 7.69363 12.2183 8.45098 12.6319 9.21794H11.6173C11.5451 9.0833 11.4634 8.94866 11.4009 8.81402C11.3384 8.67938 11.3408 8.55196 11.2999 8.41491C11.1486 7.87042 10.9297 7.34702 10.6483 6.85695C10.5048 6.60196 10.3441 6.35697 10.1675 6.12365C9.86425 5.71408 9.52028 5.33628 9.14087 4.99605C9.22531 4.46764 9.36223 3.94896 9.54959 3.44771C9.659 3.13954 9.78913 2.83912 9.93909 2.54852C10.0897 2.24449 10.2558 1.94838 10.4368 1.66134C10.6243 1.38405 10.8319 1.10436 11.0595 0.822257C11.1701 0.68281 11.2831 0.543363 11.4009 0.403916C11.5187 0.264469 11.5403 0.134639 11.6173 0H12.6319C12.2087 0.769364 11.8048 1.53392 11.3648 2.30569C11.0976 2.68648 10.8551 3.08399 10.6387 3.4958Z" fill="#0029FF"/>
<path d="M62.2102 12.9498C62.2065 13.2695 62.0769 13.5749 61.8497 13.7999C61.6225 14.0249 61.3158 14.1513 60.9961 14.1519H58.9356C58.6155 14.152 58.3082 14.0258 58.0805 13.8007C57.8527 13.5757 57.7229 13.2699 57.7191 12.9498V7.61475H56.4833V12.9498C56.4839 13.5535 56.724 14.1322 57.1509 14.5591C57.5777 14.9859 58.1565 15.226 58.7601 15.2266H61.1644C61.7683 15.226 62.3473 14.986 62.7745 14.5592C63.2017 14.1324 63.4424 13.5537 63.4436 12.9498V7.61475H62.2054L62.2102 12.9498Z" fill="#0029FF"/>
<path d="M38.3239 12.9498V7.61475H37.0857V12.9498C37.087 13.5537 37.3276 14.1324 37.7548 14.5592C38.1821 14.986 38.7611 15.226 39.3649 15.2266H42.7958V14.164H39.538C39.2162 14.1633 38.9078 14.0352 38.6802 13.8076C38.4527 13.5801 38.3245 13.2716 38.3239 12.9498Z" fill="#0029FF"/>
<path d="M98.2574 12.9498V7.61475H97.0192V12.9498C97.0204 13.5533 97.2607 14.1316 97.6874 14.5584C98.1142 14.9851 98.6926 15.2254 99.296 15.2266H102.725V14.164H99.4715C99.1497 14.1633 98.8413 14.0352 98.6137 13.8076C98.3861 13.5801 98.258 13.2716 98.2574 12.9498Z" fill="#0029FF"/>
<path d="M107.745 14.164C107.425 14.1633 107.118 14.0369 106.891 13.8119C106.664 13.5869 106.534 13.2816 106.53 12.9618V7.61475H105.292V12.9498C105.294 13.5537 105.534 14.1324 105.961 14.5592C106.389 14.986 106.968 15.226 107.571 15.2266H111V14.164H107.745Z" fill="#0029FF"/>
<path d="M86.5054 7.41012C86.2349 7.39986 85.9678 7.47363 85.7409 7.6213C85.514 7.76897 85.3385 7.98328 85.2383 8.23478V8.24921L84.4017 10.7713L83.6347 13.0986C83.6299 13.1123 83.6207 13.124 83.6085 13.1318C83.5963 13.1397 83.5818 13.1432 83.5674 13.1419C83.5533 13.1431 83.5391 13.1395 83.5273 13.1316C83.5156 13.1237 83.5068 13.1121 83.5025 13.0986L82.7331 10.7713L81.9012 8.24921V8.23478C81.8015 7.98347 81.6264 7.76924 81.3999 7.62156C81.1735 7.47388 80.9068 7.40001 80.6366 7.41012C79.9514 7.41012 79.2157 7.81885 79.2157 8.72285V15.2264H80.4515V8.73487C80.4515 8.56898 80.5068 8.49444 80.6102 8.49444H80.6486H80.6727L80.6871 8.50647C80.6939 8.51271 80.6995 8.52002 80.7039 8.5281C80.7122 8.53947 80.7194 8.55154 80.7256 8.56417C80.7329 8.57649 80.7394 8.58935 80.7448 8.60263L80.7592 8.63149L80.8121 8.79498L82.5263 13.8656C82.624 14.0569 82.7743 14.2164 82.9596 14.325C83.145 14.4336 83.3575 14.487 83.5722 14.4786C83.7872 14.4868 84 14.4335 84.1857 14.3249C84.3714 14.2163 84.5222 14.0569 84.6204 13.8656L86.3347 8.79498L86.3876 8.63149C86.3885 8.62189 86.3885 8.61223 86.3876 8.60263L86.4068 8.56417C86.4129 8.55154 86.4202 8.53947 86.4284 8.5281L86.4453 8.50647L86.4597 8.49444H86.4861H86.5222C86.628 8.49444 86.6809 8.57859 86.6809 8.73487V15.2264H87.9191V8.73487C87.9263 7.81885 87.1882 7.41012 86.5054 7.41012Z" fill="#0029FF"/>
<path d="M93.088 7.61475H91.8499V15.229H93.088V7.61475Z" fill="#0029FF"/>
<path d="M52.6198 10.1681V10.0527C52.6284 9.77867 52.5968 9.50488 52.526 9.24003C52.3864 8.76975 52.0983 8.3573 51.7048 8.06435C51.3113 7.77139 50.8335 7.61366 50.3429 7.61475H47.6982C47.3873 7.61666 47.08 7.68155 46.7949 7.80552C46.5098 7.92949 46.2527 8.10996 46.0393 8.33603C45.419 8.9948 45.419 9.77858 45.419 10.5479V12.8392C45.4007 13.3719 45.5668 13.8945 45.8892 14.319C46.2115 14.7434 46.6705 15.0436 47.1885 15.1689C47.449 15.2194 47.7145 15.2388 47.9795 15.2266H49.6241H49.9583C50.5438 15.2669 51.1275 15.1249 51.6292 14.8203C51.8965 14.6345 52.1214 14.3943 52.2892 14.1154C52.457 13.8366 52.5639 13.5254 52.603 13.2022C52.6203 13.0185 52.6259 12.8338 52.6198 12.6493V10.1681ZM46.6572 11.0384C46.6572 10.6874 46.6572 10.2907 46.6572 9.9036C46.6615 9.5804 46.7919 9.27165 47.0204 9.04309C47.249 8.81452 47.5577 8.68419 47.881 8.67984C48.0829 8.67984 48.2873 8.67984 48.4916 8.67984H49.1119H49.7323H49.8717C50.0972 8.66425 50.3238 8.68536 50.5425 8.74235C50.6505 8.77912 50.7532 8.83006 50.8478 8.89382L46.6716 13.07C46.6614 12.9525 46.6574 12.8345 46.6596 12.7166V11.6106C46.662 11.4207 46.6596 11.2284 46.6572 11.0384ZM51.3936 12.1925C51.4129 12.7575 51.4345 13.3946 51.0714 13.76C50.694 14.1712 50.2011 14.1688 49.6289 14.164H48.1142C47.9263 14.1752 47.7378 14.1607 47.554 14.1207C47.4493 14.0896 47.3491 14.0452 47.2558 13.9884L51.384 9.85792V11.8198C51.384 11.94 51.3888 12.065 51.3936 12.1925Z" fill="#0029FF"/>
<path d="M31.2748 7.6167H28.8273C28.2236 7.61734 27.6448 7.85742 27.218 8.28427C26.7911 8.71112 26.5511 9.28988 26.5504 9.89354V12.9494C26.5504 13.5537 26.7901 14.1333 27.217 14.561C27.6438 14.9888 28.223 15.2297 28.8273 15.231H33.5517V14.1635H29.0028C28.6826 14.1635 28.3753 14.0373 28.1476 13.8123C27.9199 13.5873 27.79 13.2815 27.7862 12.9614V9.89354C27.79 9.57339 27.9199 9.26765 28.1476 9.04261C28.3753 8.81757 28.6826 8.69138 29.0028 8.69141H31.0993C31.4195 8.69138 31.7267 8.81757 31.9545 9.04261C32.1822 9.26765 32.3121 9.57339 32.3159 9.89354V10.6629H33.5517V9.89354C33.551 9.28988 33.3109 8.71112 32.8841 8.28427C32.4572 7.85742 31.8785 7.61734 31.2748 7.6167Z" fill="#0029FF"/>
<path d="M74.6356 9.88842C74.6356 9.80427 74.6356 9.72253 74.6236 9.648C74.6222 9.63762 74.6222 9.62712 74.6236 9.61674C74.6145 9.544 74.6016 9.47178 74.5851 9.40036C74.5865 9.39402 74.5865 9.38746 74.5851 9.38112C74.5694 9.30683 74.5485 9.23373 74.5226 9.16234C74.5226 9.16234 74.5226 9.1407 74.5226 9.13108L74.4745 9.00366L74.4625 8.9748L74.4408 8.93393V8.9171C74.4072 8.84738 74.3711 8.78246 74.3326 8.71755L74.2773 8.6358C74.233 8.56742 74.1848 8.5016 74.1331 8.43865L74.0946 8.39538C74.0595 8.35224 74.0217 8.31129 73.9816 8.27276L73.9119 8.21025L73.8614 8.16697C73.7119 8.03853 73.5462 7.93021 73.3685 7.8448L73.3204 7.82316C73.137 7.74133 72.9439 7.68316 72.7458 7.65006H72.6905C72.5893 7.63678 72.4873 7.62956 72.3852 7.62842H66.6245V8.6911H67.5598V15.2259H72.3683C72.4706 15.2251 72.5726 15.2171 72.6737 15.2018H72.729C72.9276 15.1711 73.121 15.1128 73.3036 15.0287L73.3517 15.0071C73.5288 14.9216 73.6944 14.8142 73.8446 14.6873L73.8951 14.6416C73.9191 14.62 73.9432 14.6032 73.9648 14.5815C73.9864 14.5599 74.0417 14.4998 74.0778 14.4589C74.1139 14.4181 74.1042 14.4277 74.1163 14.4132C74.1685 14.3515 74.2167 14.2865 74.2605 14.2185L74.3158 14.1343C74.3543 14.0694 74.3903 14.0045 74.424 13.9372V13.918L74.4456 13.8771L74.4577 13.8482C74.4745 13.8074 74.4889 13.7641 74.5058 13.7232C74.5226 13.6823 74.5058 13.7016 74.5058 13.692C74.5313 13.6205 74.5522 13.5474 74.5683 13.4732C74.5693 13.4668 74.5693 13.4603 74.5683 13.4539C74.5848 13.3817 74.5976 13.3087 74.6067 13.2352C74.6057 13.2248 74.6057 13.2143 74.6067 13.2039C74.6067 13.1222 74.6188 13.0404 74.6188 12.9635V9.89083L74.6356 9.88842ZM73.4046 11.4969C73.4046 11.8287 73.4046 12.1701 73.4046 12.4826V12.949C73.4037 13.227 73.3079 13.4963 73.133 13.7123C72.9581 13.9283 72.7146 14.0781 72.4429 14.1368H72.4212C72.3475 14.1508 72.2727 14.1589 72.1976 14.1608H68.7932V8.67668H72.1904C72.2655 8.67662 72.3404 8.68386 72.414 8.69831H72.4357C72.7078 8.75615 72.9518 8.90568 73.1268 9.12188C73.3019 9.33808 73.3974 9.60783 73.3974 9.88602V10.3524C73.3974 10.6626 73.3974 11.0064 73.3974 11.3382L73.4046 11.4969Z" fill="#0029FF"/>
</g>
<defs>
<clipPath id="clip0">
<rect width="111" height="22.8453" fill="white"/>
</clipPath>
</defs>
</svg>

<svg width="111" height="23" fill="none" xmlns="http://www.w3.org/2000/svg"><g clip-path="url(#clip0)" fill="#0029FF"><path d="M15.2 22.846l.748-1.373v1.373H15.2zm.748-9.219V15l-.748-1.373h.748zm-6.043 6.908c.24-.24.464-.481.671-.721a9.34 9.34 0 001.041-1.578 8.277 8.277 0 01-.721-1.644 7.347 7.347 0 01-.2-.849 6.037 6.037 0 01-.096-.841 6.41 6.41 0 01.082-1.404c.078.03.158.052.24.067a.243.243 0 00.082.02 6.605 6.605 0 00.4 2.346c.398.771.831 1.536 1.245 2.305-.423.767-.827 1.54-1.267 2.304-.299.385-.621.752-.964 1.098a11.77 11.77 0 01-1.155.996c-.146-.022-.29-.06-.437-.096a10.27 10.27 0 01-1.202-.352 10.211 10.211 0 001.512-.978c.27-.208.528-.432.77-.673z"/><path d="M11.348 22.412a.859.859 0 00.063-.072l.038-.07.315-.576.628-1.152 1.257-2.306-1.257-2.305-.628-1.152-.315-.577-.038-.07c0-.026-.012-.05-.02-.074l-.028-.15a6.116 6.116 0 01-.046-.29h.834l2.515 4.618-2.515 4.604h-1.197l.267-.276.127-.152z"/><path d="M13.168 22.845l2.513-4.609-2.513-4.609h1.015l1.764 3.237v2.745l-1.764 3.236h-1.015zM7.756 17.17a7.119 7.119 0 011.88-4.444c.068.09.142.176.221.257a7.1 7.1 0 00-1.202 4.672 9.425 9.425 0 01-5.328 1.844 12.02 12.02 0 01-1.103-1.294 9.409 9.409 0 005.532-1.036z"/><path d="M10.098 13.192a.66.66 0 00.134.094c.051.024.092.062.14.084a6.793 6.793 0 00-.308 2.486c.02.289.056.576.108.86.044.25.102.495.176.736.072.24.156.481.252.721-.151.207-.312.414-.48.618-.175.208-.36.404-.558.59-.24.218-.481.432-.748.641a10.323 10.323 0 01-2.758 1.479c-.252-.132-.48-.284-.735-.43a6.956 6.956 0 01-.7-.481 9.376 9.376 0 004.996-2.602 7.068 7.068 0 01.48-4.796zM2.354 15.77c1.27.31 2.592.335 3.873.074a7.278 7.278 0 011.96-2.885 6.76 6.76 0 01.547-.44 7.66 7.66 0 01.597-.375.89.89 0 01.045.117c.012.039.039.07.053.106.015.036.024.053.036.08a7.083 7.083 0 00-2.522 4.116 9.376 9.376 0 01-5.63.204l-.198-.402c-.089-.19-.185-.377-.262-.572l-.22-.589c.288.12.571.24.855.327.284.087.58.17.866.238zm2.363-5.622a7.265 7.265 0 013.47-.27c.24.042.459.092.685.155.226.062.452.144.668.24a.982.982 0 01-.067.101c-.02.036-.031.075-.05.11-.02.037-.025.051-.039.075a7.025 7.025 0 00-4.777.597 9.329 9.329 0 01-3.684-4.27l.193-.395c.091-.187.18-.377.281-.56l.325-.54c.084.3.175.59.276.87.101.278.24.562.356.827a8.896 8.896 0 002.363 3.06z"/><path d="M4.635 12.17a7.088 7.088 0 014.648-1.312 2.62 2.62 0 00-.065.317 7.163 7.163 0 00-4.393 1.993 9.48 9.48 0 01-4.772-2.993c.066-.568.172-1.13.317-1.683a9.396 9.396 0 004.265 3.679z"/><path d="M9.21 11.512v.166c.012.053.02.108.025.163a6.758 6.758 0 00-2.739 1.924 7.252 7.252 0 00-.875 1.25 6.29 6.29 0 01-.798 0c-.272-.02-.529-.039-.8-.072a9.768 9.768 0 01-3.847-1.407 25.536 25.536 0 01-.128-.844c-.038-.281-.031-.54-.048-.825a9.377 9.377 0 005.152 2.26 7.107 7.107 0 014.059-2.615zM6.588 6.607a7.085 7.085 0 013.93 2.8.843.843 0 01-.148.07c-.046.027-.09.063-.14.087a7.1 7.1 0 00-4.3-2.183 9.43 9.43 0 01-.64-5.595c.24-.146.481-.298.734-.432.252-.135.51-.24.767-.373a9.362 9.362 0 00-.202 5.626z"/><path d="M9.966 9.762c-.039.04-.082.074-.123.11-.04.036-.072.087-.11.125a6.867 6.867 0 00-3.227-.925h-.76c-.25 0-.505.048-.764.088a9.262 9.262 0 01-.505-.613 8.147 8.147 0 01-.445-.673 9.78 9.78 0 01-1.308-3.873c.188-.212.377-.42.572-.628.195-.206.414-.387.623-.577A9.43 9.43 0 005.386 8.23a7.112 7.112 0 014.58 1.532zm5.982-6.526v2.746L15.2 4.609l.748-1.373zM9.136 1.637c-.151.315-.284.63-.399.94a9.55 9.55 0 00-.281.962 8.458 8.458 0 00-.24 1.873 7.568 7.568 0 011.923 1.82c.166.231.318.472.457.721.115.207.218.42.307.64.092.214.172.433.24.656l-.12.02a.31.31 0 00-.115.023l-.089.012a7.016 7.016 0 00-3.462-3.366A9.345 9.345 0 018.388.408l.436-.11a5.43 5.43 0 01.617-.123l.623-.091c-.18.255-.348.512-.505.77a8.175 8.175 0 00-.423.783z"/><path d="M13.168 4.609L15.681 0h.266v1.373l-1.764 3.236 1.764 3.236v1.373h-.266l-2.513-4.609z"/><path d="M14.666 9.218h-1.017l-2.515-4.595c.84-1.565 1.676-3.08 2.515-4.623h1.017L12.15 4.609l2.515 4.609z"/><path d="M10.639 3.496c-.201.4-.373.813-.512 1.238.266.333.508.686.72 1.055.205.362.382.738.53 1.126.404.779.841 1.536 1.255 2.303h-1.015c-.072-.135-.154-.27-.216-.404-.063-.135-.06-.262-.101-.4a6.767 6.767 0 00-.652-1.557 6.486 6.486 0 00-.48-.733A7.545 7.545 0 009.14 4.996a8.05 8.05 0 01.409-1.548c.109-.308.24-.609.39-.9.15-.304.316-.6.497-.887.187-.277.395-.557.623-.839.11-.14.223-.279.34-.418.119-.14.14-.27.217-.404h1.015c-.423.77-.827 1.534-1.267 2.306-.267.38-.51.778-.726 1.19zM62.21 12.95a1.216 1.216 0 01-1.214 1.202h-2.06a1.216 1.216 0 01-1.217-1.202V7.615h-1.236v5.335a2.279 2.279 0 002.277 2.277h2.404a2.281 2.281 0 002.28-2.277V7.615h-1.239l.005 5.335zm-23.886 0V7.615h-1.238v5.335a2.282 2.282 0 002.279 2.277h3.43v-1.063h-3.257a1.217 1.217 0 01-1.214-1.214zm59.933 0V7.615H97.02v5.335a2.282 2.282 0 002.277 2.277h3.429v-1.063h-3.253a1.217 1.217 0 01-1.215-1.214zm9.488 1.214a1.217 1.217 0 01-1.215-1.202V7.615h-1.238v5.335a2.286 2.286 0 002.279 2.277H111v-1.063h-3.255zM86.505 7.41a1.31 1.31 0 00-1.267.825v.014l-.836 2.522-.767 2.328a.065.065 0 01-.068.043.063.063 0 01-.064-.043l-.77-2.328-.832-2.522v-.014a1.308 1.308 0 00-1.264-.825c-.686 0-1.421.409-1.421 1.313v6.503h1.236V8.735c0-.166.055-.24.158-.24h.063l.014.011a.242.242 0 01.038.058.29.29 0 01.02.039l.014.028.053.164 1.714 5.07a1.126 1.126 0 001.046.614 1.13 1.13 0 001.048-.613l1.715-5.071.053-.164v-.028l.019-.039a.241.241 0 01.021-.036l.017-.022.015-.012h.062c.106 0 .159.085.159.24v6.492h1.238V8.735c.007-.916-.73-1.325-1.414-1.325zm6.583.205H91.85v7.614h1.238V7.615zM52.62 10.168v-.115a2.806 2.806 0 00-.094-.813 2.272 2.272 0 00-2.183-1.625h-2.645a2.3 2.3 0 00-1.659.721c-.62.659-.62 1.443-.62 2.212v2.291a2.315 2.315 0 001.77 2.33c.26.05.526.07.79.058h1.979c.586.04 1.17-.102 1.671-.407a2.307 2.307 0 00.974-1.618 4.36 4.36 0 00.017-.553v-2.48zm-5.963.87V9.904a1.24 1.24 0 011.224-1.224h1.991a2.09 2.09 0 01.67.062c.108.037.211.088.306.152l-4.176 4.176a3.362 3.362 0 01-.012-.353V11.61c.002-.19 0-.383-.003-.573zm4.737 1.155c.019.565.04 1.202-.323 1.567-.377.411-.87.409-1.442.404h-1.515a2.058 2.058 0 01-.56-.043 1.267 1.267 0 01-.298-.133l4.128-4.13v1.962c0 .12.005.245.01.373zM31.275 7.617h-2.448a2.28 2.28 0 00-2.277 2.277v3.055a2.281 2.281 0 002.277 2.282h4.725v-1.067h-4.55a1.217 1.217 0 01-1.216-1.203V9.894a1.217 1.217 0 011.217-1.203h2.096a1.217 1.217 0 011.217 1.203v.769h1.236v-.77a2.28 2.28 0 00-2.277-2.276zm43.361 2.271c0-.084 0-.165-.012-.24a.117.117 0 010-.031 2.143 2.143 0 00-.039-.217.045.045 0 000-.019 1.63 1.63 0 00-.062-.219v-.03l-.048-.128-.012-.03-.022-.04v-.017a2.603 2.603 0 00-.108-.2l-.056-.081a2.168 2.168 0 00-.144-.197l-.038-.044a1.364 1.364 0 00-.113-.122l-.07-.063-.05-.043a2.256 2.256 0 00-.493-.322l-.049-.022a2.368 2.368 0 00-.574-.173h-.055a2.567 2.567 0 00-.306-.022h-5.76v1.063h.935v6.535h4.808c.103 0 .205-.009.306-.024h.055c.199-.03.392-.09.575-.173l.048-.022a2.34 2.34 0 00.493-.32l.05-.045c.024-.022.048-.039.07-.06.021-.022.077-.082.113-.123.036-.04.026-.031.038-.046.052-.062.1-.127.144-.194l.056-.085c.038-.065.074-.13.108-.197v-.019l.022-.04.012-.03c.017-.04.03-.084.048-.125.017-.04 0-.021 0-.031.025-.072.046-.145.062-.219a.062.062 0 000-.02c.017-.071.03-.144.039-.218a.164.164 0 010-.031c0-.082.012-.164.012-.24V9.89l.017-.003zm-1.231 1.609v1.452a1.22 1.22 0 01-.962 1.188h-.022a1.386 1.386 0 01-.223.024h-3.405V8.677h3.397c.076 0 .15.007.224.021h.022a1.214 1.214 0 01.961 1.188v1.452l.008.159z"/></g><defs><clipPath id="clip0"><path fill="#fff" d="M0 0h111v22.845H0z"/></clipPath></defs></svg>
